X: 2212
T: WITHIN A MILE
Q: "Highland Schottische."
R: Schottishe.
%R: shottish
B: James Kerr "Merry Melodies" v.2 p.24 #212
Z: 2016 John Chambers <jc:trillian.mit.edu>
M: C
L: 1/8
K: A
(c>d) |\
ve<uc vB>uc vA2 (c>A) | F<A E>C E2 (A>B) |\
c<e f>a e<c [1 B>A | c2B2B2 :|[2 B>c | A>ae>c A2 ||
E2 |:\
A>Bc>d (e<c) a2 | A>Bc>d (e<c) a2 |\
A>BA>F E<C E>A |[1 c>A c<e f2a2 :|[2 c<eB>c A2 |]

%%sep 1 1 500
%%sep 1 1 500

